actions/22x22-dark/document-edit-decrypt-verify.svg

<svg viewBox="0 0 22 22" xmlns="http://www.w3.org/2000/svg"><path d="m4.77672 3c-.43093 0-.77672.35758-.77672.80078v14.39844c0 .4432.34579.80078.77672.80078h12.44656c.43093 0 .77672-.35758.77672-.80078v-14.39844c0-.4432-.34579-.80078-.77672-.80078zm.87737.73633a.88559081.91079472 0 0 1  .88687.91015.88559081.91079472 0 0 1 -.88687.91211.88559081.91079472 0 0 1 -.88496-.91211.88559081.91079472 0 0 1  .88496-.91015zm2.15356 0a .88559081.91079472 0 0 1  .88686.91015.88559081.91079472 0 0 1 -.88686.91211.88559081.91079472 0 0 1 -.88497-.91211.88559081.91079472 0 0 1  .88497-.91015zm2.17065 0a .88559081.91079472 0 0 1  .88687.91015.88559081.91079472 0 0 1 -.88687.91211.88559081.91079472 0 0 1 -.88498-.91211.88559081.91079472 0 0 1  .88498-.91015zm2.14785 0a .88559081.91079472 0 0 1  .88687.91015.88559081.91079472 0 0 1 -.88687.91211.88559081.91079472 0 0 1 -.88496-.91211.88559081.91079472 0 0 1  .88496-.91015zm2.11367 0a .88559081.91079472 0 0 1  .88498.91015.88559081.91079472 0 0 1 -.88498.91016.88559081.91079472 0 0 1 -.88687-.91016.88559081.91079472 0 0 1  .88687-.91015zm2.10609 0a .88559081.91079472 0 0 1  .88496.91015.88559081.91079472 0 0 1 -.88496.91211.88559081.91079472 0 0 1 -.88687-.91211.88559081.91079472 0 0 1  .88687-.91015zm-9.63782 2.17773a.88559081.91079472 0 0 1  .88496.91211.88559081.91079472 0 0 1 -.88496.91016.88559081.91079472 0 0 1 -.88498-.91016.88559081.91079472 0 0 1  .88498-.91211zm2.15355 0a .88559081.91079472 0 0 1  .88497.91016.88559081.91079472 0 0 1 -.88497.91211.88559081.91079472 0 0 1 -.88687-.91211.88559081.91079472 0 0 1  .88687-.91016zm2.17064 0a .88559081.91079472 0 0 1  .88497.91016.88559081.91079472 0 0 1 -.88497.91211.88559081.91079472 0 0 1 -.88496-.91211.88559081.91079472 0 0 1  .88496-.91016zm2.14786 0a .88559081.91079472 0 0 1  .88497.91016.88559081.91079472 0 0 1 -.88497.91211.88559081.91079472 0 0 1 -.88687-.91211.88559081.91079472 0 0 1  .88687-.91016zm2.11177 0a .88559081.91079472 0 0 1  .88498.91016.88559081.91079472 0 0 1 -.88498.91211.88559081.91079472 0 0 1 -.88497-.91211.88559081.91079472 0 0 1  .88497-.91016zm-9.63782 2.19727a.88559081.91079472 0 0 1  .88687.91211.88559081.91079472 0 0 1 -.88687.91015.88559081.91079472 0 0 1 -.88496-.91015.88559081.91079472 0 0 1  .88496-.91211zm2.15356 0a .88559081.91079472 0 0 1  .88686.91015.88559081.91079472 0 0 1 -.88686.91211.88559081.91079472 0 0 1 -.88497-.91211.88559081.91079472 0 0 1  .88497-.91015zm2.17065 0a .88559081.91079472 0 0 1  .88687.91015.88559081.91079472 0 0 1 -.88687.91211.88559081.91079472 0 0 1 -.88498-.91211.88559081.91079472 0 0 1  .88498-.91015zm2.14785 0a .88559081.91079472 0 0 1  .88687.91015.88559081.91079472 0 0 1 -.88687.91211.88559081.91079472 0 0 1 -.88496-.91211.88559081.91079472 0 0 1  .88496-.91015zm2.11367 0a .88559081.91079472 0 0 1  .88498.91015.88559081.91079472 0 0 1 -.88498.91211.88559081.91079472 0 0 1 -.88687-.91211.88559081.91079472 0 0 1  .88687-.91015zm2.10609 0a .88559081.91079472 0 0 1  .88496.91015.88559081.91079472 0 0 1 -.88496.91211.88559081.91079472 0 0 1 -.88687-.91211.88559081.91079472 0 0 1  .88687-.91015zm-5.55101 3.41406c.35926.0241.69905.11778 1.01791.2832.31876.16537.58896.37857.8109.63868.22194.2601.39092.56357.50895.91015.11808.34654.16586.70473.14243 1.07422-.0361.56843-.22506 1.07403-.56592 1.51563l1.20971 1.41601c.0869.10181.12457.22056.11584.35742-.009.13434-.0635.24811-.16522.33985-.10159.0918-.2169.13181-.34753.12304-.13575-.009-.24624-.0657-.33044-.16992l-1.20781-1.41211c-.47001.29023-.98166.41794-1.53446.38086-.35925-.0241-.69909-.11973-1.0179-.28515-.31875-.16542-.58896-.37657-.81091-.63672-.22194-.26011-.39091-.56362-.50894-.91016-.11808-.34663-.16587-.70473-.14244-1.07422.0234-.36948.11643-.71899.27727-1.04687.16079-.32784.36619-.60573.6191-.83399.2529-.22826.54797-.40205.88496-.52343.33695-.12144.68524-.17059 1.0445-.14649zm-.0626.99219c-.46477-.0312-.873.11204-1.22491.42969-.35189.31759-.54321.71536-.57352 1.19336-.0303.47804.10895.8978.4178 1.25976.30885.36191.69557.55867 1.16034.58984.46481.0312.87295-.11204 1.2249-.42968.3519-.31765.54321-.71532.57352-1.19336.0303-.478-.10894-.89785-.41779-1.25977-.3089-.36192-.69558-.55867-1.16034-.58984z" fill="#f2f2f2"/></svg>

<svg xmlns="http://www.w3.org/2000/svg" viewBox="0 0 22 22">
  <defs id="defs3051">
    <style type="text/css" id="current-color-scheme">
      .ColorScheme-Text {
        color:#f2f2f2
      }
      </style>
  </defs>
    <path
       style="fill:currentColor;fill-opacity:1;stroke:none"
       class="ColorScheme-Text"
       d="M 4.77672,3 C 4.34579,3 4,3.35758 4,3.80078 L 4,18.19922 C 4,18.64242 4.34579,19 4.77672,19 l 12.44656,0 C 17.65421,19 18,18.64242 18,18.19922 L 18,3.80078 C 18,3.35758 17.65421,3 17.22328,3 L 4.77672,3 Z M 5.65409,3.73633 A 0.88559081,0.91079472 0 0 1 6.54096,4.64648 0.88559081,0.91079472 0 0 1 5.65409,5.55859 0.88559081,0.91079472 0 0 1 4.76913,4.64648 0.88559081,0.91079472 0 0 1 5.65409,3.73633 Z m 2.15356,0 A 0.88559081,0.91079472 0 0 1 8.69451,4.64648 0.88559081,0.91079472 0 0 1 7.80765,5.55859 0.88559081,0.91079472 0 0 1 6.92268,4.64648 0.88559081,0.91079472 0 0 1 7.80765,3.73633 Z m 2.17065,0 A 0.88559081,0.91079472 0 0 1 10.86517,4.64648 0.88559081,0.91079472 0 0 1 9.9783,5.55859 0.88559081,0.91079472 0 0 1 9.09332,4.64648 0.88559081,0.91079472 0 0 1 9.9783,3.73633 Z m 2.14785,0 a 0.88559081,0.91079472 0 0 1 0.88687,0.91015 0.88559081,0.91079472 0 0 1 -0.88687,0.91211 0.88559081,0.91079472 0 0 1 -0.88496,-0.91211 0.88559081,0.91079472 0 0 1 0.88496,-0.91015 z m 2.11367,0 A 0.88559081,0.91079472 0 0 1 15.1248,4.64648 0.88559081,0.91079472 0 0 1 14.23982,5.55664 0.88559081,0.91079472 0 0 1 13.35295,4.64648 0.88559081,0.91079472 0 0 1 14.23982,3.73633 Z m 2.10609,0 A 0.88559081,0.91079472 0 0 1 17.23087,4.64648 0.88559081,0.91079472 0 0 1 16.34591,5.55859 0.88559081,0.91079472 0 0 1 15.45904,4.64648 0.88559081,0.91079472 0 0 1 16.34591,3.73633 Z M 6.70809,5.91406 A 0.88559081,0.91079472 0 0 1 7.59305,6.82617 0.88559081,0.91079472 0 0 1 6.70809,7.73633 0.88559081,0.91079472 0 0 1 5.82311,6.82617 0.88559081,0.91079472 0 0 1 6.70809,5.91406 Z m 2.15355,0 A 0.88559081,0.91079472 0 0 1 9.74661,6.82422 0.88559081,0.91079472 0 0 1 8.86164,7.73633 0.88559081,0.91079472 0 0 1 7.97477,6.82422 0.88559081,0.91079472 0 0 1 8.86164,5.91406 Z m 2.17064,0 a 0.88559081,0.91079472 0 0 1 0.88497,0.91016 0.88559081,0.91079472 0 0 1 -0.88497,0.91211 0.88559081,0.91079472 0 0 1 -0.88496,-0.91211 0.88559081,0.91079472 0 0 1 0.88496,-0.91016 z m 2.14786,0 a 0.88559081,0.91079472 0 0 1 0.88497,0.91016 0.88559081,0.91079472 0 0 1 -0.88497,0.91211 0.88559081,0.91079472 0 0 1 -0.88687,-0.91211 0.88559081,0.91079472 0 0 1 0.88687,-0.91016 z m 2.11177,0 A 0.88559081,0.91079472 0 0 1 16.17689,6.82422 0.88559081,0.91079472 0 0 1 15.29191,7.73633 0.88559081,0.91079472 0 0 1 14.40694,6.82422 0.88559081,0.91079472 0 0 1 15.29191,5.91406 Z M 5.65409,8.11133 A 0.88559081,0.91079472 0 0 1 6.54096,9.02344 0.88559081,0.91079472 0 0 1 5.65409,9.93359 0.88559081,0.91079472 0 0 1 4.76913,9.02344 0.88559081,0.91079472 0 0 1 5.65409,8.11133 Z m 2.15356,0 A 0.88559081,0.91079472 0 0 1 8.69451,9.02148 0.88559081,0.91079472 0 0 1 7.80765,9.93359 0.88559081,0.91079472 0 0 1 6.92268,9.02148 0.88559081,0.91079472 0 0 1 7.80765,8.11133 Z m 2.17065,0 A 0.88559081,0.91079472 0 0 1 10.86517,9.02148 0.88559081,0.91079472 0 0 1 9.9783,9.93359 0.88559081,0.91079472 0 0 1 9.09332,9.02148 0.88559081,0.91079472 0 0 1 9.9783,8.11133 Z m 2.14785,0 a 0.88559081,0.91079472 0 0 1 0.88687,0.91015 0.88559081,0.91079472 0 0 1 -0.88687,0.91211 0.88559081,0.91079472 0 0 1 -0.88496,-0.91211 0.88559081,0.91079472 0 0 1 0.88496,-0.91015 z m 2.11367,0 A 0.88559081,0.91079472 0 0 1 15.1248,9.02148 0.88559081,0.91079472 0 0 1 14.23982,9.93359 0.88559081,0.91079472 0 0 1 13.35295,9.02148 0.88559081,0.91079472 0 0 1 14.23982,8.11133 Z m 2.10609,0 a 0.88559081,0.91079472 0 0 1 0.88496,0.91015 0.88559081,0.91079472 0 0 1 -0.88496,0.91211 0.88559081,0.91079472 0 0 1 -0.88687,-0.91211 0.88559081,0.91079472 0 0 1 0.88687,-0.91015 z m -5.55101,3.41406 c 0.35926,0.0241 0.69905,0.11778 1.01791,0.2832 0.31876,0.16537 0.58896,0.37857 0.8109,0.63868 0.22194,0.2601 0.39092,0.56357 0.50895,0.91015 0.11808,0.34654 0.16586,0.70473 0.14243,1.07422 -0.0361,0.56843 -0.22506,1.07403 -0.56592,1.51563 l 1.20971,1.41601 c 0.0869,0.10181 0.12457,0.22056 0.11584,0.35742 -0.009,0.13434 -0.0635,0.24811 -0.16522,0.33985 -0.10159,0.0918 -0.2169,0.13181 -0.34753,0.12304 -0.13575,-0.009 -0.24624,-0.0657 -0.33044,-0.16992 L 11.98372,16.60156 C 11.51371,16.89179 11.00206,17.0195 10.44926,16.98242 10.09001,16.95832 9.75017,16.86269 9.43136,16.69727 9.11261,16.53185 8.8424,16.3207 8.62045,16.06055 8.39851,15.80044 8.22954,15.49693 8.11151,15.15039 7.99343,14.80376 7.94564,14.44566 7.96907,14.07617 7.99247,13.70669 8.0855,13.35718 8.24634,13.0293 c 0.16079,-0.32784 0.36619,-0.60573 0.6191,-0.83399 0.2529,-0.22826 0.54797,-0.40205 0.88496,-0.52343 0.33695,-0.12144 0.68524,-0.17059 1.0445,-0.14649 z m -0.0626,0.99219 c -0.46477,-0.0312 -0.873,0.11204 -1.22491,0.42969 -0.35189,0.31759 -0.54321,0.71536 -0.57352,1.19336 -0.0303,0.47804 0.10895,0.8978 0.4178,1.25976 0.30885,0.36191 0.69557,0.55867 1.16034,0.58984 0.46481,0.0312 0.87295,-0.11204 1.2249,-0.42968 0.3519,-0.31765 0.54321,-0.71532 0.57352,-1.19336 0.0303,-0.478 -0.10894,-0.89785 -0.41779,-1.25977 -0.3089,-0.36192 -0.69558,-0.55867 -1.16034,-0.58984 z"
        />
</svg>
